X: 69
T:Correnta dei Bofei
O:France
A:Provence
R:Farandole
C:Trad.
Z:Transcrit et/ou corrig? par Michel BELLON - 2005-03-06
Z:Pour toute observation mailto:galouvielle@free.fr
M:6/8
L:1/8
K:Fmaj
z4zc|f2f fga|a2f fef|g2g gfg|a3f2c|f2f fga|
a2f fef|g2g gag|f3f2c|f2f fga|a2f fef|
g2g gfg|a3f2c|f2f fga|a2f fef|g2g gag|f6|efg agf|
efg g2d|def gag|fed e2c|efg agf|efg g2d|e2f gag|fed c3|]
<end>
<start>
